X: 1
T: Bill Powrie
C: Ian Powrie
R: reel, hornpipe
Z: 2014 John Chambers <jc:trillian.mit.edu>
S: SRSNH page 7.9
M: C|
L: 1/8
K: D
A2 |\
"D"D2DF AFF2 | "D"d2Ad "D7"fdd2 |\
"G"d2Bd "D"dAAd | "E7"ceAc eAGE ||
y4 |\
"D"D2DF AFF2 | "D"d2Ad "D7"fdd2 |\
"G"d2Bd "D"dAAd | "A7"ceAc "D"d2 :|
|: de |\
"D"f2gf "D7"fee2 | "G"d2Bd "D"dAA2 |\
"G"dBBd "D"dAAd | "E7"ceAc "A7"egfe ||
y4 |\
"D"f2gf "D7"feef | "G"d2Bd "D"dAA2 |\
"G"dBBd "D"dAAd | "A7"c{d}e Ac "D"d2 :|
